common/src/main/resources/glyphs/plugins/resharper/PsiServices/OverridesAndImplements.svg

<svg xmlns="http://www.w3.org/2000/svg" width="16" height="16" fill="#7986CB" data-big="true" viewBox="0 0 24 24"><path d="M16 4 9 8.04v7.92L16 20l7-4.04V8.04m-7-1.73 3.8 2.19-3.8 2.19-3.79-2.19M0 7v2h7V7m4 3.11 4 2.31v4.69l-4-2.3m10-4.7v4.7l-4 2.3v-4.69M2 11v2h5v-2m-3 4v2h3v-2"/><path d="M23.2 15.6a.79.79 0 0 1-.424.704l-6.32 3.552A.76.76 0 0 1 16 20a.76.76 0 0 1-.456-.144l-6.32-3.552A.79.79 0 0 1 8.8 15.6V8.4c0-.304.168-.568.424-.704l6.32-3.552A.76.76 0 0 1 16 4c.168 0 .328.048.456.144l6.32 3.552c.256.136.424.4.424.704zM16 5.72 11.232 8.4 16 11.08l4.768-2.68z"/><path fill="#AED581" d="M12.42 5.29c-1.1-.1-2.07.71-2.17 1.82L10 10h2.82v2h-3l-.44 5.07A4.001 4.001 0 0 1 2 18.83l1.5-1.5c.33 1.05 1.46 1.64 2.5 1.3.78-.24 1.33-.93 1.4-1.74L7.82 12h-3v-2H8l.27-3.07a4.01 4.01 0 0 1 4.33-3.65c1.26.11 2.4.81 3.06 1.89l-1.5 1.5c-.25-.77-.93-1.31-1.74-1.38M22 13.65l-1.41-1.41-2.83 2.83-2.83-2.83-1.43 1.41 2.85 2.85-2.85 2.81 1.43 1.41 2.83-2.83 2.83 2.83L22 19.31l-2.83-2.81z"/><path fill="#E57373" d="M19.5 12h-3V5.25l-2.625 2.625L12.06 6.06 18 .12l5.94 5.94-1.815 1.815L19.5 5.25z"/></svg>

<!--
  - The MIT License (MIT)
  -
  - Copyright (c) 2015-2024 Elior "Mallowigi" Boukhobza
  -
  - Permission is hereby granted, free of charge, to any person obtaining a copy
  - of this software and associated documentation files (the "Software"), to deal
  - in the Software without restriction, including without limitation the rights
  - to use, copy, modify, merge, publish, distribute, sublicense, and/or sell
  - copies of the Software, and to permit persons to whom the Software is
  - furnished to do so, subject to the following conditions:
  -
  - The above copyright notice and this permission notice shall be included in all
  - copies or substantial portions of the Software.
  -
  - THE SOFTWARE IS PROVIDED "AS IS", WITHOUT WARRANTY OF ANY KIND, EXPRESS OR
  - IMPLIED, INCLUDING BUT NOT LIMITED TO THE WARRANTIES OF MERCHANTABILITY,
  - FITNESS FOR A PARTICULAR PURPOSE AND NONINFRINGEMENT. IN NO EVENT SHALL THE
  - AUTHORS OR COPYRIGHT HOLDERS BE LIABLE FOR ANY CLAIM, DAMAGES OR OTHER
  - LIABILITY, WHETHER IN AN ACTION OF CONTRACT, TORT OR OTHERWISE, ARISING FROM,
  - OUT OF OR IN CONNECTION WITH THE SOFTWARE OR THE USE OR OTHER DEALINGS IN THE
  - SOFTWARE.
  -->


<svg data-big="true" xmlns="http://www.w3.org/2000/svg" version="1.1" width="16px" height="16px" viewBox="0 0 24 24"
     fill="#7986CB">
  <path
    d="M16,4L9,8.04V15.96L16,20L23,15.96V8.04M16,6.31L19.8,8.5L16,10.69L12.21,8.5M0,7V9H7V7M11,10.11L15,12.42V17.11L11,14.81M21,10.11V14.81L17,17.11V12.42M2,11V13H7V11M4,15V17H7V15"/>
  <path
    d="M21,16.5C21,16.88 20.79,17.21 20.47,17.38L12.57,21.82C12.41,21.94 12.21,22 12,22C11.79,22 11.59,21.94 11.43,21.82L3.53,17.38C3.21,17.21 3,16.88 3,16.5V7.5C3,7.12 3.21,6.79 3.53,6.62L11.43,2.18C11.59,2.06 11.79,2 12,2C12.21,2 12.41,2.06 12.57,2.18L20.47,6.62C20.79,6.79 21,7.12 21,7.5V16.5M12,4.15L6.04,7.5L12,10.85L17.96,7.5L12,4.15Z"
    transform="scale(0.8) translate(8 3)"/>
  <path fill="#AED581"
        d="M12.42,5.29C11.32,5.19 10.35,6 10.25,7.11L10,10H12.82V12H9.82L9.38,17.07C9.18,19.27 7.24,20.9 5.04,20.7C3.79,20.59 2.66,19.9 2,18.83L3.5,17.33C3.83,18.38 4.96,18.97 6,18.63C6.78,18.39 7.33,17.7 7.4,16.89L7.82,12H4.82V10H8L8.27,6.93C8.46,4.73 10.39,3.1 12.6,3.28C13.86,3.39 15,4.09 15.66,5.17L14.16,6.67C13.91,5.9 13.23,5.36 12.42,5.29M22,13.65L20.59,12.24L17.76,15.07L14.93,12.24L13.5,13.65L16.35,16.5L13.5,19.31L14.93,20.72L17.76,17.89L20.59,20.72L22,19.31L19.17,16.5L22,13.65Z"/>

  <path fill="#E57373" transform="scale(0.75) translate(12 -4)"
        d="M14,20H10V11L6.5,14.5L4.08,12.08L12,4.16L19.92,12.08L17.5,14.5L14,11V20Z"/>
</svg>
